src/topics/icons/kontena.svg

<svg height="299" preserveAspectRatio="xMidYMid" viewBox="0 0 256 299" width="256" xmlns="http://www.w3.org/2000/svg"><path d="m85.3524 225.1019v49.265l42.664 24.633 42.666-24.633v-49.265l-42.666-24.632z" fill="#8aa964"/><path d="m128.0169.3332-128.017 73.907v147.796l42.665 24.633v-147.796l42.688-24.646v98.535l85.329-49.269v-49.266l42.659-24.624zm85.324 49.27.005.003v-.006zm-.006 98.526-42.664 24.634 42.665 24.632-.001 49.265 42.665-24.633v-147.791l-42.654-24.63z" fill="#8aa964"/><path d="m170.6822 74.2313-42.665-24.633 42.665-24.632z" fill="#5e7745"/><path d="m85.352 225.1022 42.665 24.633-42.665 24.632z" fill="#738f54"/><path d="m170.6822 274.3672-42.665-24.633 42.665-24.632z" fill="#5e7644"/><path d="m85.3524 274.3679 42.664 24.632v-49.265z" fill="#a1b982"/><path d="m170.682 225.1019-42.665 24.633v-49.266z" fill="#738f54"/><path d="m128.0169 299 42.665-24.632-42.665-24.633z" fill="#8aa964"/><path d="m128.0169 200.4694v49.265l-42.665-24.632z" fill="#8ba964"/><path d="m85.352 74.2274 42.665 24.633-42.665 24.632z" fill="#738f53"/><path d="m85.352 123.4973 42.665 24.633-42.665 24.632z" fill="#738f53"/><path d="m170.6822 123.4924-42.665-24.633 42.665-24.632z" fill="#5e7745"/><path d="m85.3522 123.4927 42.665-24.633v49.266z" fill="#5e7644"/><path d="m170.682 74.2271-42.665 24.633v-49.266z" fill="#475d34"/><path d="m128.0172 148.1252v-49.265l42.665 24.632z" fill="#475d34"/><path d="m128.0169 49.5946v49.265l-42.665-24.632z" fill="#5e7644"/><path d="m85.352 24.9663 42.665 24.633-42.665 24.632z" fill="#738f54"/><path d="m128.0169.3332v49.265l42.665-24.632z" fill="#738f54"/><path d="m213.3351 148.1294 42.665 24.632v-49.264z" fill="#5e7644"/><path d="m213.3358 197.3954-42.665-24.633 42.665-24.632z" fill="#8aa964"/><path d="m213.3351 148.1294 42.665-24.633-42.665-24.632z" fill="#738f54"/><path d="m213.3351 197.3945 42.665-24.632-42.665-24.633z" fill="#738f54"/><path d="m213.3351 197.3954 42.665 24.632v-49.265z" fill="#5e7644"/><path d="m213.3351 246.6605 42.665-24.633-42.665-24.632z" fill="#8aa964"/><path d="m213.3351 98.8688 42.665 24.632v-49.265z" fill="#5e7644"/><path d="m213.3351 98.8679 42.665-24.632-42.665-24.633z" fill="#738f54"/><path d="m0 123.5063 42.665 24.632v-49.265z" fill="#5e7644"/><path d="m0 123.5054 42.665-24.632-42.665-24.633z" fill="#738f54"/><path d="m0 172.7714 42.665-24.633-42.665-24.632z" fill="#738f54"/><path d="m0 172.7714 42.665 24.633v-49.265z" fill="#5e7644"/><path d="m0 222.0365 42.665 24.633v-49.265z" fill="#a0b982"/><path d="m0 222.0365 42.665-24.632-42.665-24.633z" fill="#738f54"/><path d="m0 74.2448 42.665 24.633v-49.265z" fill="#8aa964"/><path d="m213.3461 49.6004-42.665 24.633v-49.266z" fill="#738f54"/><path d="m128.0169.3332-42.664 24.633 42.664 24.632z" fill="#8aa964"/><path d="m42.6893 49.5989 42.665 24.633-42.665 24.632z" fill="#738f54"/><path d="m85.3543 24.9661v49.265l-42.665-24.632z" fill="#8aa964"/></svg>

<?xml version="1.0" encoding="UTF-8" standalone="no"?>
<svg width="256px" height="299px" viewBox="0 0 256 299" version="1.1" xmlns="http://www.w3.org/2000/svg" xmlns:xlink="http://www.w3.org/1999/xlink" preserveAspectRatio="xMidYMid">
	<g>
		<path d="M85.3524,225.1019 L85.3524,274.3669 L128.0164,298.9999 L170.6824,274.3669 L170.6824,225.1019 L128.0164,200.4699 L85.3524,225.1019 Z" fill="#8AA964"></path>
		<path d="M128.0169,0.3332 L-0.0001,74.2402 L-0.0001,222.0362 L42.6649,246.6692 L42.6649,98.8732 L85.3529,74.2272 L85.3529,172.7622 L170.6819,123.4932 L170.6819,74.2272 L213.3409,49.6032 L128.0169,0.3332 Z M213.3409,49.6032 L213.3459,49.6062 L213.3459,49.6002 L213.3409,49.6032 Z M213.3349,148.1292 L170.6709,172.7632 L213.3359,197.3952 L213.3349,246.6602 L255.9999,222.0272 L255.9999,74.2362 L213.3459,49.6062 L213.3349,148.1292 Z" fill="#8AA964"></path>
		<path d="M170.6822,74.2313 L128.0172,49.5983 L170.6822,24.9663 L170.6822,74.2313 Z" fill="#5E7745"></path>
		<path d="M85.352,225.1022 L128.017,249.7352 L85.352,274.3672 L85.352,225.1022 Z" fill="#738F54"></path>
		<path d="M170.6822,274.3672 L128.0172,249.7342 L170.6822,225.1022 L170.6822,274.3672 Z" fill="#5E7644"></path>
		<path d="M85.3524,274.3679 L128.0164,298.9999 L128.0164,249.7349 L85.3524,274.3679 Z" fill="#A1B982"></path>
		<path d="M170.682,225.1019 L128.017,249.7349 L128.017,200.4689 L170.682,225.1019 Z" fill="#738F54"></path>
		<path d="M128.0169,299 L170.6819,274.368 L128.0169,249.735 L128.0169,299 Z" fill="#8AA964"></path>
		<path d="M128.0169,200.4694 L128.0169,249.7344 L85.3519,225.1024 L128.0169,200.4694 Z" fill="#8BA964"></path>
		<path d="M85.352,74.2274 L128.017,98.8604 L85.352,123.4924 L85.352,74.2274 Z" fill="#738F53"></path>
		<path d="M85.352,123.4973 L128.017,148.1303 L85.352,172.7623 L85.352,123.4973 Z" fill="#738F53"></path>
		<path d="M170.6822,123.4924 L128.0172,98.8594 L170.6822,74.2274 L170.6822,123.4924 Z" fill="#5E7745"></path>
		<path d="M85.3522,123.4927 L128.0172,98.8597 L128.0172,148.1257 L85.3522,123.4927 Z" fill="#5E7644"></path>
		<path d="M170.682,74.2271 L128.017,98.8601 L128.017,49.5941 L170.682,74.2271 Z" fill="#475D34"></path>
		<path d="M128.0172,148.1252 L128.0172,98.8602 L170.6822,123.4922 L128.0172,148.1252 Z" fill="#475D34"></path>
		<path d="M128.0169,49.5946 L128.0169,98.8596 L85.3519,74.2276 L128.0169,49.5946 Z" fill="#5E7644"></path>
		<path d="M85.352,24.9663 L128.017,49.5993 L85.352,74.2313 L85.352,24.9663 Z" fill="#738F54"></path>
		<path d="M128.0169,0.3332 L128.0169,49.5982 L170.6819,24.9662 L128.0169,0.3332 Z" fill="#738F54"></path>
		<path d="M213.3351,148.1294 L256.0001,172.7614 L256.0001,123.4974 L213.3351,148.1294 Z" fill="#5E7644"></path>
		<path d="M213.3358,197.3954 L170.6708,172.7624 L213.3358,148.1304 L213.3358,197.3954 Z" fill="#8AA964"></path>
		<path d="M213.3351,148.1294 L256.0001,123.4964 L213.3351,98.8644 L213.3351,148.1294 Z" fill="#738F54"></path>
		<path d="M213.3351,197.3945 L256.0001,172.7625 L213.3351,148.1295 L213.3351,197.3945 Z" fill="#738F54"></path>
		<path d="M213.3351,197.3954 L256.0001,222.0274 L256.0001,172.7624 L213.3351,197.3954 Z" fill="#5E7644"></path>
		<path d="M213.3351,246.6605 L256.0001,222.0275 L213.3351,197.3955 L213.3351,246.6605 Z" fill="#8AA964"></path>
		<path d="M213.3351,98.8688 L256.0001,123.5008 L256.0001,74.2358 L213.3351,98.8688 Z" fill="#5E7644"></path>
		<path d="M213.3351,98.8679 L256.0001,74.2359 L213.3351,49.6029 L213.3351,98.8679 Z" fill="#738F54"></path>
		<path d="M0,123.5063 L42.665,148.1383 L42.665,98.8733 L0,123.5063 Z" fill="#5E7644"></path>
		<path d="M0,123.5054 L42.665,98.8734 L0,74.2404 L0,123.5054 Z" fill="#738F54"></path>
		<path d="M0,172.7714 L42.665,148.1384 L0,123.5064 L0,172.7714 Z" fill="#738F54"></path>
		<path d="M0,172.7714 L42.665,197.4044 L42.665,148.1394 L0,172.7714 Z" fill="#5E7644"></path>
		<path d="M0,222.0365 L42.665,246.6695 L42.665,197.4045 L0,222.0365 Z" fill="#A0B982"></path>
		<path d="M0,222.0365 L42.665,197.4045 L0,172.7715 L0,222.0365 Z" fill="#738F54"></path>
		<path d="M0,74.2448 L42.665,98.8778 L42.665,49.6128 L0,74.2448 Z" fill="#8AA964"></path>
		<path d="M213.3461,49.6004 L170.6811,74.2334 L170.6811,24.9674 L213.3461,49.6004 Z" fill="#738F54"></path>
		<path d="M128.0169,0.3332 L85.3529,24.9662 L128.0169,49.5982 L128.0169,0.3332 Z" fill="#8AA964"></path>
		<path d="M42.6893,49.5989 L85.3543,74.2319 L42.6893,98.8639 L42.6893,49.5989 Z" fill="#738F54"></path>
		<path d="M85.3543,24.9661 L85.3543,74.2311 L42.6893,49.5991 L85.3543,24.9661 Z" fill="#8AA964"></path>
	</g>
</svg>
